symbolic/64x64/apps/tegaki-recognize.svg

<svg xmlns="http://www.w3.org/2000/svg" width="64" height="64" version="1">
 <rect style="opacity:0.2" width="58" height="58" x="3" y="4" rx="2.9" ry="2.9"/>
 <rect style="fill:#e4e4e4" width="58" height="58" x="3" y="3" rx="2.9" ry="2.9"/>
 <path style="opacity:0.1;fill:none;stroke:#000000;stroke-width:6;stroke-linecap:round;stroke-linejoin:round" d="m 31.999966,12.999334 0,13.999321 M 18,20.999333 l 28,0 m -20,24 12,0 m -6.000034,7.99994 0,-31.58 c 4.760948,7.71342 8.527244,19.781164 18.000034,21.6 m -17.971752,9.94012 0,-31.579998 C 27.2673,29.092815 23.472788,41.160557 14,42.979393"/>
 <path style="fill:none;stroke:#3f3f3f;stroke-width:6;stroke-linecap:round;stroke-linejoin:round" d="m 31.999966,51.99994 0,-31.58 C 36.760914,28.13336 40.52721,40.201104 50,42.01994 m -17.971752,9.94012 0,-31.579999 C 27.2673,28.093482 23.472788,40.161224 14,41.98006"/>
 <path style="fill:none;stroke:#3f3f3f;stroke-width:6;stroke-linecap:round;stroke-linejoin:round" d="m 26,44 12,0"/>
 <path style="fill:none;stroke:#3f3f3f;stroke-width:6;stroke-linecap:round;stroke-linejoin:round" d="m 18,20 28,0"/>
 <path style="fill:none;stroke:#3f3f3f;stroke-width:6;stroke-linecap:round;stroke-linejoin:round" d="m 31.999966,12 0,13.999322"/>
 <path style="opacity:0.2;fill:#ffffff" d="M 5.8984375 3 C 4.2918375 3 3 4.2918375 3 5.8984375 L 3 6.8984375 C 3 5.2918375 4.2918375 4 5.8984375 4 L 58.101562 4 C 59.708163 4 61 5.2918375 61 6.8984375 L 61 5.8984375 C 61 4.2918375 59.708163 3 58.101562 3 L 5.8984375 3 z"/>
</svg>

<svg xmlns="http://www.w3.org/2000/svg" width="64" height="64" version="1"><rect style="opacity:.2" width="58" height="58" x="3" y="4" rx="2.9" ry="2.9"/><rect style="fill:#e4e4e4" width="58" height="58" x="3" y="3" rx="2.9" ry="2.9"/><path style="opacity:.1;fill:none;stroke:#000;stroke-width:6;stroke-linecap:round;stroke-linejoin:round" d="M32 13v13.999m-14-6h28M26 45h12m-6 8V21.42c4.76 7.714 8.527 19.781 18 21.6m-17.972 9.94V21.38c-4.76 7.714-8.555 19.782-18.028 21.6"/><path style="fill:none;stroke:#3f3f3f;stroke-width:6;stroke-linecap:round;stroke-linejoin:round" d="M32 52V20.42c4.76 7.713 8.527 19.781 18 21.6m-17.972 9.94V20.38c-4.76 7.713-8.555 19.781-18.028 21.6M26 44h12M18 20h28M32 12v14"/><path style="opacity:.2;fill:#fff" d="M5.898 3A2.891 2.891 0 0 0 3 5.898v1A2.891 2.891 0 0 1 5.898 4h52.204A2.891 2.891 0 0 1 61 6.898v-1A2.891 2.891 0 0 0 58.102 3H5.898z"/></svg>
